X: 19823
T: Jerry Holland's
R: jig
M: 6/8
K: Gmajor
|:A|B3 BAG|Gee edc|d3 dBG|BAA A^GA|
BcB BAG|Ge/e/e e2 d|e/f/gd B2 A|BGF G2:|
(3B/c/d/|g3 gdB|G2 e e^de|fge dBG|BA^G AB/c/d|
gba gdB|Gee e2 d|e/f/gd B2 A|BGG G2 d|
g3 gdB|Ge^d edf|gdg gfg|ae/e/e e2 d|
g/a/ba gef|gB/c/d ecA|GBd ecg|dBG G2||

